svg/300/outlined/account_box-fill.svg

<svg xmlns="http://www.w3.org/2000/svg" width="48" height="48" viewBox="0 -960 960 960"><path d="M481.615-409.847q53.769 0 91.077-37.307 37.307-37.308 37.307-91.461 0-53.769-37.307-91.077-37.308-37.307-91.077-37.307-54.153 0-91.461 37.307-37.307 37.308-37.307 91.077 0 54.153 37.307 91.461 37.308 37.307 91.461 37.307ZM197.694-140.001q-23.616 0-40.654-17.039-17.039-17.038-17.039-40.654v-564.612q0-23.616 17.039-40.654 17.038-17.039 40.654-17.039h564.612q23.616 0 40.654 17.039 17.039 17.038 17.039 40.654v564.612q0 23.616-17.039 40.654-17.038 17.039-40.654 17.039H197.694Zm-3.847-45.384h572.306q4.231-9.846 5.769-15.231Q773.461-206 774.615-217q-58.461-55.231-133.115-88.769-74.654-33.538-161.5-33.538t-161.5 33.538Q243.846-272.231 185.385-217q1.154 11 2.693 16.384 1.538 5.385 5.769 15.231Z"/></svg>

<svg xmlns="http://www.w3.org/2000/svg" width="48" height="48" viewBox="0 -960 960 960"><path d="M481.62-409.85q53.76 0 91.07-37.3Q610-484.46 610-538.62q0-53.76-37.31-91.07Q535.38-667 481.62-667q-54.16 0-91.47 37.31-37.3 37.31-37.3 91.07 0 54.16 37.3 91.47 37.31 37.3 91.47 37.3ZM197.69-140q-23.61 0-40.65-17.04T140-197.69v-564.62q0-23.61 17.04-40.65T197.69-820h564.62q23.61 0 40.65 17.04T820-762.31v564.62q0 23.61-17.04 40.65T762.31-140H197.69Zm-3.84-45.39h572.3q4.23-9.84 5.77-15.23 1.54-5.38 2.69-16.38-58.46-55.23-133.11-88.77T480-339.31q-86.85 0-161.5 33.54T185.39-217q1.15 11 2.69 16.38 1.54 5.39 5.77 15.23Z"/></svg>
